X:109
T: Valamennyi búzaszál van...
M: 2/4
L: 1/4
K: F
df | g/f/e/d/ | f/d/e | d2 | 
df | |g/f/e/d/| e/c/d | c2 | 
Bd | e/d/d/B/ | d/B/c | d2 | 
Bd | e/d/d/B/ | d/B/c/B/ | A2 | 

